src/icons/solid/symbols/international.svg

<svg width="24" height="24" viewBox="0 0 24 24" fill="none" xmlns="http://www.w3.org/2000/svg">
<g clip-path="url(#clip0_4547_395)">
<path fill-rule="evenodd" clip-rule="evenodd" d="M16.7878 8.08134H22.3088C21.0103 4.5311 18.0302 1.82297 14.3589 1C15.5827 2.51196 16.3954 5.15311 16.7878 8.08134ZM8.63232 15.9187C9.22086 20.0814 10.6688 22.8852 12.0047 22.8852C13.3406 22.8852 14.7886 20.0814 15.3771 15.9187H8.64167H8.63232ZM22.9998 11.9952C22.9998 12.8565 22.8971 13.6795 22.7196 14.4833H16.937C17.0024 13.6507 17.0398 12.8278 17.0398 11.9952C17.0398 11.1627 17.0024 10.3302 16.937 9.5072H22.7196C22.8971 10.311 22.9998 11.134 22.9998 11.9952ZM15.6387 12.0048C15.6387 11.1435 15.6013 10.311 15.5266 9.51672H8.46415C8.39876 10.311 8.35205 11.1339 8.35205 12.0048C8.35205 12.8756 8.38942 13.6985 8.46415 14.4928H15.5266C15.5919 13.6985 15.6387 12.8756 15.6387 12.0048ZM1.70068 15.9187H7.21235C7.6047 18.8469 8.41744 21.4881 9.64122 23C5.96989 22.1771 2.98985 19.4689 1.70068 15.9187ZM15.3678 8.08138C14.7792 3.9187 13.3313 1.11487 12.0047 1.11487C10.6782 1.11487 9.22086 3.9187 8.63232 8.08138H15.3678ZM14.3589 23C15.5827 21.4881 16.4047 18.8469 16.7878 15.9187H22.2994C21.0103 19.4689 18.0302 22.1771 14.3589 23ZM1.28025 9.51672C1.10276 10.3206 1 11.1435 1 12.0048C1 12.866 1.10276 13.689 1.28025 14.4928H7.06283C6.99744 13.6698 6.96007 12.8373 6.96007 12.0048C6.96007 11.1722 6.99744 10.3493 7.06283 9.51672H1.28025ZM9.65056 1C8.42678 2.51196 7.6047 5.15311 7.22169 8.08134H1.70068C2.98985 4.5311 5.96989 1.82297 9.65056 1Z" fill="#3C3B44"/>
</g>
<defs>
<clipPath id="clip0_4547_395">
<rect width="24" height="24" fill="white"/>
</clipPath>
</defs>
</svg>

<svg xmlns="http://www.w3.org/2000/svg" width="24" height="24" fill="none" viewBox="0 0 24 24"><g clip-path="url(#a)"><path fill="currentColor" fill-rule="evenodd" d="M16.788 8.081h5.52C21.01 4.531 18.03 1.823 14.359 1c1.225 1.512 2.037 4.153 2.43 7.081M8.632 15.92c.589 4.162 2.037 6.966 3.373 6.966s2.784-2.804 3.372-6.966zM23 11.995c0 .862-.103 1.685-.28 2.488h-5.783c.065-.832.103-1.655.103-2.488 0-.832-.038-1.665-.103-2.488h5.783c.177.804.28 1.627.28 2.488m-7.361.01q0-1.295-.112-2.488H8.464a30 30 0 0 0-.112 2.488c0 .87.037 1.693.112 2.488h7.063c.065-.795.112-1.617.112-2.488M1.7 15.919h5.511c.393 2.928 1.205 5.57 2.43 7.081-3.672-.823-6.652-3.531-7.941-7.081M15.368 8.08c-.589-4.162-2.037-6.966-3.363-6.966S9.22 3.919 8.632 8.08zM14.358 23c1.225-1.512 2.047-4.153 2.43-7.081h5.511c-1.289 3.55-4.269 6.258-7.94 7.081M1.28 9.517c-.177.804-.28 1.627-.28 2.488s.103 1.684.28 2.488h5.783a32 32 0 0 1-.103-2.488c0-.833.037-1.656.103-2.488zM9.65 1C8.428 2.512 7.606 5.153 7.223 8.081H1.7C2.99 4.531 5.97 1.823 9.65 1" clip-rule="evenodd"/></g><defs><clipPath id="a"><path fill="currentColor" d="M0 0h24v24H0z"/></clipPath></defs></svg>
